X:282
M:C|
L:1/8
K:A
e|:AAc>e d2 B>G|AAc>e d2 c>A|B>EB>e d2 B>G|AAc>e d>B e2:|
||AAc>e =g2 B>G|AAc>e a2 c>A|a2 c>A =g2B>G|AAc>e d>B e2|

